dist/img/icons/darkFlower.svg

<svg width="27" height="27" viewBox="0 0 27 27" fill="none" xmlns="http://www.w3.org/2000/svg">
<path d="M25.1689 18.2129C25.705 16.824 25.9997 15.3166 25.9997 13.7397C25.9997 11.9628 25.6252 10.2715 24.9541 8.7417" stroke="#202020" stroke-miterlimit="10" stroke-linecap="round" stroke-linejoin="round"/>
<path d="M13.2591 13.3292C13.2652 13.3292 13.2734 13.3292 13.2795 13.3292C13.2816 13.2699 13.2816 13.2086 13.2836 13.1494C13.2734 13.1494 13.2632 13.1494 13.2529 13.1494C13.257 13.2086 13.257 13.2699 13.2591 13.3292Z" stroke="#202020" stroke-miterlimit="10" stroke-linecap="round" stroke-linejoin="round"/>
<path d="M13.2681 13.7393C13.2681 13.6004 13.2742 13.4635 13.2783 13.3267C13.2721 13.3267 13.264 13.3267 13.2578 13.3267C13.2619 13.4656 13.2681 13.6024 13.2681 13.7393Z" stroke="#202020" stroke-miterlimit="10" stroke-linecap="round" stroke-linejoin="round"/>
<path d="M13.22 13.1474C8.8494 13.0432 5.03536 10.7004 2.88893 7.21997C1.81675 5.47974 1.15993 3.45764 1.05762 1.29053C3.28179 1.33751 5.3648 1.96252 7.15724 3.02667C9.45303 4.38903 11.2741 6.46423 12.3115 8.94794C12.3115 8.94794 7.18997 10.584 4.18211 4.72196" stroke="#202020" stroke-miterlimit="10" stroke-linecap="round" stroke-linejoin="round"/>
<path d="M25.7493 1.28418C23.5272 1.28418 21.4421 1.8663 19.6354 2.88347C15.9993 4.92804 13.4928 8.73734 13.2861 13.1492C13.3659 13.1512 13.4437 13.1553 13.5214 13.1553C18.0169 13.1553 21.9578 10.7799 24.1533 7.21975C25.2255 5.47952 25.8823 3.45742 25.9846 1.29031C25.9069 1.28826 25.8271 1.28418 25.7493 1.28418Z" stroke="#202020" stroke-miterlimit="10" stroke-linecap="round" stroke-linejoin="round"/>
<path d="M13.2591 13.3984C13.2652 13.3984 13.2734 13.3984 13.2795 13.3984C13.2816 13.4577 13.2816 13.5189 13.2836 13.5782C13.2734 13.5782 13.2632 13.5782 13.2529 13.5782C13.257 13.521 13.257 13.4597 13.2591 13.3984Z" stroke="#202020" stroke-miterlimit="10" stroke-linecap="round" stroke-linejoin="round"/>
<path d="M13.2681 12.9873C13.2681 13.1262 13.2742 13.263 13.2783 13.3999C13.2721 13.3999 13.264 13.3999 13.2578 13.3999C13.2619 13.261 13.2681 13.1262 13.2681 12.9873Z" stroke="#202020" stroke-miterlimit="10" stroke-linecap="round" stroke-linejoin="round"/>
<path d="M2.88893 19.5094C1.81675 21.2497 1.15993 23.2717 1.05762 25.4389C3.28179 25.3919 5.3648 24.7669 7.15724 23.7027C10.6582 21.6255 13.0543 17.8897 13.2568 13.582C8.86987 13.6719 5.0415 16.0188 2.88893 19.5094Z" stroke="#202020" stroke-miterlimit="10" stroke-linecap="round" stroke-linejoin="round"/>
<path d="M14.1198 17.5142C15.1735 20.2063 17.1358 22.4408 19.6342 23.8461C21.4409 24.8612 23.526 25.4453 25.7481 25.4453C25.8279 25.4453 25.9056 25.4413 25.9834 25.4392C25.8811 23.2721 25.2243 21.25 24.1521 19.5098C21.9566 15.9497 18.0156 13.5742 13.5202 13.5742C13.4936 13.5742 13.467 13.5742 13.4404 13.5763" stroke="#202020" stroke-miterlimit="10" stroke-linecap="round" stroke-linejoin="round"/>
<path d="M1.83074 18.2129C1.29465 16.824 1 15.3166 1 13.7397C1 11.9628 1.37444 10.2715 2.04559 8.7417" stroke="#202020" stroke-miterlimit="10" stroke-linecap="round" stroke-linejoin="round"/>
<path d="M8.75684 1.82926C10.1482 1.29412 11.6583 1 13.2359 1C15.016 1 16.7103 1.37378 18.2429 2.04373" stroke="#202020" stroke-miterlimit="10" stroke-linecap="round" stroke-linejoin="round"/>
<path d="M8.75684 25.1266C10.1482 25.6617 11.6583 25.9558 13.2359 25.9558C15.016 25.9558 16.7103 25.5821 18.2429 24.9121" stroke="#202020" stroke-miterlimit="10" stroke-linecap="round" stroke-linejoin="round"/>
</svg>

<svg width="27" height="27" viewBox="0 0 27 27" fill="none" xmlns="http://www.w3.org/2000/svg"><path d="M25.169 18.213c.536-1.389.83-2.896.83-4.473 0-1.777-.374-3.469-1.045-4.998M13.26 13.33h.02l.004-.18h-.031c.004.059.004.12.006.18z" stroke="#202020" stroke-miterlimit="10" stroke-linecap="round" stroke-linejoin="round"/><path d="M13.268 13.74c0-.14.006-.277.01-.413h-.02c.004.139.01.275.01.412zm-.048-.593A12.473 12.473 0 012.889 7.22a12.39 12.39 0 01-1.831-5.93 12.43 12.43 0 016.1 1.737 12.505 12.505 0 015.154 5.92s-5.122 1.637-8.13-4.225M25.75 1.284c-2.223 0-4.308.582-6.115 1.6C16 4.927 13.493 8.736 13.286 13.148c.08.002.158.006.235.006 4.496 0 8.437-2.375 10.632-5.935a12.39 12.39 0 001.832-5.93c-.078-.002-.158-.006-.236-.006z" stroke="#202020" stroke-miterlimit="10" stroke-linecap="round" stroke-linejoin="round"/><path d="M13.26 13.398h.02l.004.18h-.031c.004-.057.004-.118.006-.18z" stroke="#202020" stroke-miterlimit="10" stroke-linecap="round" stroke-linejoin="round"/><path d="M13.268 12.987c0 .14.006.276.01.413h-.02c.004-.139.01-.274.01-.413zM2.889 19.51a12.39 12.39 0 00-1.831 5.929 12.429 12.429 0 006.1-1.736c3.5-2.078 5.896-5.813 6.099-10.121a12.465 12.465 0 00-10.368 5.927zm11.231-1.996a12.51 12.51 0 005.514 6.332 12.445 12.445 0 006.114 1.6c.08 0 .158-.005.235-.007a12.39 12.39 0 00-1.83-5.93 12.475 12.475 0 00-10.633-5.935c-.026 0-.053 0-.08.002M1.83 18.213A12.393 12.393 0 011 13.74c0-1.777.374-3.469 1.046-4.998M8.757 1.83A12.451 12.451 0 0113.236 1c1.78 0 3.474.374 5.007 1.044M8.757 25.127a12.45 12.45 0 004.479.829c1.78 0 3.474-.374 5.007-1.044" stroke="#202020" stroke-miterlimit="10" stroke-linecap="round" stroke-linejoin="round"/></svg>
